X: 25637
T: Martin McCabe's
R: barndance
M: 4/4
K: Dmajor
|:F>G|A2 d2 d>fe>d|e2 B2 B2 B>d|c2 E2 G2 c2|B>A^G>B (3ABA (3EF=G|
A2 d2 d2 (3fed|e2 B2 B2 (3Bcd|c>BA>^G A>c (3edc|d2 D2 D2:|
K: GMaj
|:c2|B2 B>A G2 G2|B>AG>B d2 g2|f>dA>B c2 d2|f>ed>f e>c (3ABc|
B2 B>A G2 G2|B>A (3GAB d2 g2|f2 A>B c>d (3gfe|d>cA>F G2:|
K: DMaj
|:F>G|A2 A2 d2 d2|f>ed>f e2 B2|c2 A2 c>BA>c|B>AF>G B>A (3EFG|
A2 F>A d2 A>d|f2 (3def e>B^A>B|c2 c>A c2 (3ABc|e2 c2 d2:|
K: GMaj
|:(3d^c=c|[G2B2] G>E D2 D2|[G,G]>[B,B]D>G B2 A>B|c2 f2 f>ed>f|e>cA>e d2 (3d^c=c|
[G2B2] G>E D2 D>[B,B]|[G,G]>[B,B]D>G B2 (3GAB|c2 e2 e>^de>^c|e>c (3AGF G2:|

